packages/ffe-icons/icons/filled/md/bloodtype.svg

<svg xmlns="http://www.w3.org/2000/svg" height="24" viewBox="0 -960 960 960" width="24"><path d="M479.929-100.001q-128.467 0-214.197-88.253-85.731-88.252-85.731-219.691 0-58.209 26.385-116.802 26.384-58.593 65.961-112.461 39.577-53.868 85.615-101.341 46.038-47.473 85.5-82.603 7.615-7.231 17.105-10.731 9.491-3.5 19.433-3.5t19.433 3.5q9.49 3.5 17.105 10.731 39.462 35.13 85.5 82.603 46.038 47.473 85.615 101.341 39.577 53.868 65.961 112.461 26.385 58.593 26.385 116.802 0 131.439-85.801 219.691-85.802 88.253-214.269 88.253Zm-79.929-150h160q12.75 0 21.375-8.628 8.624-8.629 8.624-21.384 0-12.756-8.624-21.371-8.625-8.615-21.375-8.615H400q-12.75 0-21.374 8.628-8.625 8.629-8.625 21.384 0 12.756 8.625 21.371 8.624 8.615 21.374 8.615Zm50.001-200V-400q0 12.75 8.628 21.374 8.629 8.625 21.384 8.625 12.756 0 21.371-8.625 8.615-8.624 8.615-21.374v-50.001H560q12.75 0 21.375-8.628 8.624-8.629 8.624-21.384 0-12.756-8.624-21.371-8.625-8.615-21.375-8.615h-50.001V-560q0-12.75-8.628-21.375-8.629-8.624-21.384-8.624-12.756 0-21.371 8.624-8.615 8.625-8.615 21.375v50.001H400q-12.75 0-21.374 8.628-8.625 8.629-8.625 21.384 0 12.756 8.625 21.371 8.624 8.615 21.374 8.615h50.001Z"/></svg>

<svg xmlns="http://www.w3.org/2000/svg" height="24" viewBox="0 -960 960 960" width="24"><path d="M479.93-100q-128.47 0-214.2-88.25Q180-276.51 180-407.94q0-58.21 26.39-116.81 26.38-58.59 65.96-112.46 39.57-53.87 85.61-101.34 46.04-47.47 85.5-82.6 7.62-7.23 17.11-10.73 9.49-3.5 19.43-3.5t19.43 3.5q9.49 3.5 17.11 10.73 39.46 35.13 85.5 82.6 46.04 47.47 85.61 101.34 39.58 53.87 65.96 112.46Q780-466.15 780-407.94q0 131.43-85.8 219.69Q608.4-100 479.93-100ZM400-250h160q12.75 0 21.37-8.63 8.63-8.63 8.63-21.38 0-12.76-8.63-21.37Q572.75-310 560-310H400q-12.75 0-21.37 8.63-8.63 8.63-8.63 21.38 0 12.76 8.63 21.37Q387.25-250 400-250Zm50-200v50q0 12.75 8.63 21.37 8.63 8.63 21.38 8.63 12.76 0 21.37-8.63Q510-387.25 510-400v-50h50q12.75 0 21.37-8.63 8.63-8.63 8.63-21.38 0-12.76-8.63-21.37Q572.75-510 560-510h-50v-50q0-12.75-8.63-21.37-8.63-8.63-21.38-8.63-12.76 0-21.37 8.63Q450-572.75 450-560v50h-50q-12.75 0-21.37 8.63-8.63 8.63-8.63 21.38 0 12.76 8.63 21.37Q387.25-450 400-450h50Z"/></svg>
